X:187
T:Caw hawkey through the water. Ru1.187
B:Rutherford's Country Dances Vol 1, 1756
Z:village music project, Steve Mansfield July 2015
M:C|
L:1/8
W:Foot it to your Partner and hands cross Quite
W:round with the second Couple .| The same Back
W:again .| foot it to your Partner and turn her .|
W:foot it again and right hand and Left into the
W:second Couples Place :|
Q:2/4=60
K:C
|:A | c/c/c ce d/d/d de | c/c/c ce BGGB | c/c/c ce d/d/d df | e2 (Tg^f/g/) aAA :|
|: g | a/g/f/e/ dc de g2 | a/g/f/e/ gd BGGg | a/g/f/e/ dc de ga | eagb aAA :|]

